X: 1
T: Black Rogue   [A]
C: trad.
O: as played by Caitlin Warbelow
S: RSCDS handout for 2022-2-7 online session
R: jig
M: 6/8
K: A
"A"|: d |\
"A"cAA "G"BGG | "A"cAA A2d | cAA "G"GBd | "D"AFD D2d ||\
"A"cAA "G"BGG | "A"ABA "D"AGF | "G"GFG "A"BdB | "D"AFD D2 :|
"^B"|: e |\
"D"f3 "A"g3 | "D"afd "A"cBA | "D"fef "A"gfg | "D"afd d2g ||\
"D" agf "A"gfe | "D"fed "A"cBA | "G"GFG "A"BdB | "D"AFD D2 :|
